shader_type spatial;
render_mode diffuse_toon, specular_toon;

uniform float height_scale = 0.5;
uniform sampler2D noise;
uniform sampler2D normalmap;
uniform float calmness = 50.0; // 1 - 100
uniform int num_of_additional_waves_in_x_direction = 2; // May be labeled as the wrong direction
uniform int num_of_additional_waves_in_z_direction = 2; // May be labeled as the wrong direction

varying vec2 tex_position;

float wave(vec2 position) {
	position += texture(noise, position / calmness).x * 2.0 - 1.0;
	vec2 wv = 1.0 - abs(sin(position));
	return pow(1.0 - pow(wv.x * wv.y, 0.65), 4.0);
}

float height(vec2 position, float time) {
	// Change your MeshInstance3D PlaneMesh to 10 x 10

	float d = wave((position + time) * 0.4) * 0.3;
	
	// Give the user control over how many waves and in what direction
	
	//for(int i = 0; i < num_of_additional_waves_in_x_direction; i++) {
		////Randomise magic number 0.3 and 0.3 to a range beteen 0.1 and 1
		//d += wave((position + time) * 0.3) * 0.3;
	//}
	//
	//for(int i = 0; i < num_of_additional_waves_in_z_direction; i++) {
		////Randomise magic number 0.3 and 0.3 to a range beteen 0.1 and 1
		//d += wave((position - time) * 0.3) * 0.3;
	//}
	
	// Statically create the waves
	
	d += wave((position - time) * 0.3) * 0.3;
	d += wave((position + time) * 0.5) * 0.2;
	d += wave((position - time) * 0.6) * 0.2;
	return d;
}


void vertex() {
	// Called for every vertex the material is visible on.	

	//Do I change the below to height(tex_position, TIME); ?
	// Version - 1
	//tex_position = VERTEX.xz / 5.0 + 0.5;
	//float _height = texture(noise, tex_position).x;
	
	//VERTEX.y += _height * height_scale;
	
	
	vec2 pos = VERTEX.xz;
	float k = height(pos, TIME);

	// Version - 2
  	VERTEX.y = k;
	
	NORMAL = normalize(vec3(k - height(pos + vec2(0.1, 0.0), TIME), 0.1, k - height(pos + vec2(0.0, 0.1), TIME)));
	
	
}

void fragment() {
	// Called for every pixel the material is visible on.
	
	float fresnel = sqrt(1.0 - dot(NORMAL, VIEW));
	NORMAL_MAP = texture(normalmap, tex_position).xyz;
	
	
	RIM = 0.2;
	METALLIC = 0.0;
	ROUGHNESS = 0.01 * (1.0 - fresnel);
	ALBEDO = vec3(0.01, 0.03, 0.05) +  + (0.1 * fresnel);
	
}